X: 94
T:Mairedelia
M:2/2
L:1/8
C:Ed Reavy
S:The Collected Compositions of Ed Reavy
R:Reel
N:Mairedelia. Ed's granddaughter, who is carrying on the tradition
N:herself. Maire has won several first place fiddle medals in local
N:and New York area feises.
Z:Joseph Reavy
K:D
|FG|Addc dcAF|FDA,D FGAB|[D=c]Bcd cAGA|d2 fd ^cAGA|dcde (3fga ec|d
cAF GE=CE|DEFG =cBAF|GE=CE D2:||fe|defg abag|e=c (3cBc efge|defg adf
a|gece d2 fg|abag efge|BdcA GE=CE|DEFG dcAF|GE=CE D2:||
<end>
<start>
